(Generated with: DXF2GCODE, Version: PyQt4 Beta, Date: $Date:: 2013-11-10 16:40:51#$)
(Time: Fri Dec 27 02:18:30 2013)
(Created from file: H:/OFM_CBSP/CBSP_Enterprises/Enterprises_IMNUI/IMNUI_Sunglasses/Sunglasses_00-Design/00-Design_STOS.dxf)
G21 (Unit in mm) G90 (Absolute distance mode) G64 P0.001 (Exact Path 0.001 tol.) G17 G40 (Cancel diameter comp.) G49 (Cancel length comp.)
G0 Z  15.000 

(*** LAYER: 01 ***)
T1 M6
S6000

(* SHAPE Nr: 9 *)
G0 X  -9.188 Y   6.752
M3 M8
G0 Z   3.000 
F150
G1 Z  -1.500
F400
G1 X -12.110 Y   6.819
G1 X -12.110 Y   6.819
G1 X -12.111 Y   6.819
G1 X -12.114 Y   6.819
G1 X -12.124 Y   6.819
G1 X -12.166 Y   6.820
G1 X -12.325 Y   6.822
G1 X -12.907 Y   6.828
G1 X -14.777 Y   6.823
G1 X -15.870 Y   6.802
G1 X -16.938 Y   6.761
G1 X -17.432 Y   6.731
G1 X -17.883 Y   6.694
G1 X -18.089 Y   6.673
G1 X -18.279 Y   6.649
G1 X -18.453 Y   6.624
G1 X -18.533 Y   6.610
G1 X -18.608 Y   6.596
G1 X -18.670 Y   6.583
G1 X -18.729 Y   6.570
G1 X -18.786 Y   6.556
G1 X -18.840 Y   6.541
G1 X -18.893 Y   6.526
G1 X -18.943 Y   6.511
G1 X -18.992 Y   6.495
G1 X -19.039 Y   6.478
G1 X -19.083 Y   6.462
G1 X -19.126 Y   6.445
G1 X -19.168 Y   6.428
G1 X -19.207 Y   6.410
G1 X -19.245 Y   6.392
G1 X -19.281 Y   6.374
G1 X -19.316 Y   6.356
G1 X -19.350 Y   6.338
G1 X -19.382 Y   6.320
G1 X -19.412 Y   6.302
G1 X -19.441 Y   6.284
G1 X -19.469 Y   6.265
G1 X -19.522 Y   6.230
G1 X -19.570 Y   6.194
G1 X -19.615 Y   6.160
G1 X -19.656 Y   6.127
G1 X -19.730 Y   6.067
G1 X -19.832 Y   5.981
G1 X -19.932 Y   5.891
G1 X -20.031 Y   5.799
G1 X -20.128 Y   5.703
G1 X -20.224 Y   5.605
G1 X -20.317 Y   5.505
G1 X -20.499 Y   5.300
G1 X -20.674 Y   5.092
G1 X -20.840 Y   4.883
G1 X -21.146 Y   4.477
G1 X -21.643 Y   3.797
G1 X -21.741 Y   3.673
G1 X -21.785 Y   3.620
G1 X -21.806 Y   3.596
G1 X -21.827 Y   3.574
G1 X -21.847 Y   3.553
G1 X -21.865 Y   3.534
G1 X -21.884 Y   3.517
G1 X -21.892 Y   3.510
G1 X -21.901 Y   3.502
G1 X -21.909 Y   3.496
G1 X -21.918 Y   3.489
G1 X -21.926 Y   3.483
G1 X -21.933 Y   3.478
G1 X -21.937 Y   3.476
G1 X -21.941 Y   3.473
G1 X -21.945 Y   3.471
G1 X -21.948 Y   3.469
G1 X -21.952 Y   3.467
G1 X -21.956 Y   3.465
G1 X -21.959 Y   3.463
G1 X -21.963 Y   3.462
G1 X -21.967 Y   3.460
G1 X -21.972 Y   3.458
G1 X -21.977 Y   3.456
G1 X -21.982 Y   3.454
G1 X -21.993 Y   3.451
G1 X -22.004 Y   3.448
G1 X -22.016 Y   3.444
G1 X -22.029 Y   3.441
G1 X -22.042 Y   3.439
G1 X -22.056 Y   3.436
G1 X -22.084 Y   3.431
G1 X -22.115 Y   3.427
G1 X -22.148 Y   3.423
G1 X -22.182 Y   3.421
G1 X -22.217 Y   3.418
G1 X -22.254 Y   3.417
G1 X -22.331 Y   3.415
G1 X -22.411 Y   3.416
G1 X -22.493 Y   3.420
G1 X -22.576 Y   3.425
G1 X -22.658 Y   3.433
G1 X -22.738 Y   3.443
G1 X -22.815 Y   3.454
G1 X -22.852 Y   3.461
G1 X -22.888 Y   3.468
G1 X -22.922 Y   3.476
G1 X -22.955 Y   3.484
G1 X -22.986 Y   3.492
G1 X -23.015 Y   3.501
G1 X -23.029 Y   3.506
G1 X -23.042 Y   3.511
G1 X -23.055 Y   3.516
G1 X -23.067 Y   3.521
G1 X -23.068 Y   3.521
G1 X -23.069 Y   3.522
G1 X -23.070 Y   3.522
G1 X -23.072 Y   3.523
G1 X -23.073 Y   3.524
G1 X -23.074 Y   3.524
G1 X -23.075 Y   3.525
G1 X -23.077 Y   3.526
G1 X -23.079 Y   3.527
G1 X -23.081 Y   3.529
G1 X -23.084 Y   3.531
G1 X -23.086 Y   3.532
G1 X -23.088 Y   3.534
G1 X -23.090 Y   3.536
G1 X -23.092 Y   3.538
G1 X -23.094 Y   3.540
G1 X -23.096 Y   3.542
G1 X -23.098 Y   3.545
G1 X -23.100 Y   3.547
G1 X -23.102 Y   3.549
G1 X -23.104 Y   3.552
G1 X -23.105 Y   3.554
G1 X -23.107 Y   3.557
G1 X -23.109 Y   3.559
G1 X -23.110 Y   3.562
G1 X -23.111 Y   3.565
G1 X -23.113 Y   3.567
G1 X -23.114 Y   3.570
G1 X -23.115 Y   3.573
G1 X -23.117 Y   3.576
G1 X -23.118 Y   3.579
G1 X -23.119 Y   3.582
G1 X -23.120 Y   3.585
G1 X -23.121 Y   3.589
G1 X -23.121 Y   3.592
G1 X -23.122 Y   3.595
G1 X -23.123 Y   3.598
G1 X -23.123 Y   3.602
G1 X -23.124 Y   3.605
G1 X -23.124 Y   3.609
G1 X -23.125 Y   3.612
G1 X -23.125 Y   3.616
G1 X -23.125 Y   3.619
G1 X -23.125 Y   3.623
G1 X -23.125 Y   3.626
G1 X -23.125 Y   3.630
G1 X -23.125 Y   3.634
G1 X -23.125 Y   3.637
G1 X -23.124 Y   3.641
G1 X -23.124 Y   3.645
G1 X -23.124 Y   3.649
G1 X -23.123 Y   3.652
G1 X -23.122 Y   3.656
G1 X -23.121 Y   3.660
G1 X -23.121 Y   3.664
G1 X -23.120 Y   3.668
G1 X -23.119 Y   3.672
G1 X -23.117 Y   3.676
G1 X -23.116 Y   3.679
G1 X -23.115 Y   3.683
G1 X -23.113 Y   3.687
G1 X -23.112 Y   3.691
G1 X -23.110 Y   3.695
G1 X -23.108 Y   3.699
G1 X -23.107 Y   3.703
G1 X -23.105 Y   3.707
G1 X -23.103 Y   3.711
G1 X -23.100 Y   3.715
G1 X -23.099 Y   3.717
G1 X -23.098 Y   3.719
G1 X -23.096 Y   3.721
G1 X -23.095 Y   3.724
G1 X -23.091 Y   3.729
G1 X -23.087 Y   3.734
G1 X -23.083 Y   3.740
G1 X -23.078 Y   3.746
G1 X -23.066 Y   3.760
G1 X -23.053 Y   3.775
G1 X -23.038 Y   3.791
G1 X -23.003 Y   3.828
G1 X -22.912 Y   3.918
G1 X -22.797 Y   4.028
G1 X -22.136 Y   4.630
G1 X -20.355 Y   6.261
G1 X -20.291 Y   6.319
G1 X -20.192 Y   6.405
G1 X -20.062 Y   6.512
G1 X -19.907 Y   6.631
G1 X -19.822 Y   6.693
G1 X -19.733 Y   6.755
G1 X -19.640 Y   6.817
G1 X -19.545 Y   6.876
G1 X -19.447 Y   6.933
G1 X -19.398 Y   6.960
G1 X -19.348 Y   6.987
G1 X -19.299 Y   7.011
G1 X -19.249 Y   7.035
G1 X -19.199 Y   7.057
G1 X -19.149 Y   7.078
G1 X -19.127 Y   7.087
G1 X -19.103 Y   7.095
G1 X -19.053 Y   7.112
G1 X -19.001 Y   7.129
G1 X -18.947 Y   7.145
G1 X -18.837 Y   7.174
G1 X -18.731 Y   7.200
G1 X -18.473 Y   7.254
G1 X -17.742 Y   7.409
G1 X -16.998 Y   7.545
G1 X -16.248 Y   7.664
G1 X -15.499 Y   7.766
G1 X -14.030 Y   7.925
G1 X -12.646 Y   8.033
G1 X -11.400 Y   8.100
G1 X -10.347 Y   8.135
G1 X  -9.036 Y   8.150
G1 X  -8.960 Y   8.150
G1 X  -9.188 Y   6.752
F150
G1 Z  -3.000
F400
G1 X -12.110 Y   6.819
G1 X -12.110 Y   6.819
G1 X -12.111 Y   6.819
G1 X -12.114 Y   6.819
G1 X -12.124 Y   6.819
G1 X -12.166 Y   6.820
G1 X -12.325 Y   6.822
G1 X -12.907 Y   6.828
G1 X -14.777 Y   6.823
G1 X -15.870 Y   6.802
G1 X -16.938 Y   6.761
G1 X -17.432 Y   6.731
G1 X -17.883 Y   6.694
G1 X -18.089 Y   6.673
G1 X -18.279 Y   6.649
G1 X -18.453 Y   6.624
G1 X -18.533 Y   6.610
G1 X -18.608 Y   6.596
G1 X -18.670 Y   6.583
G1 X -18.729 Y   6.570
G1 X -18.786 Y   6.556
G1 X -18.840 Y   6.541
G1 X -18.893 Y   6.526
G1 X -18.943 Y   6.511
G1 X -18.992 Y   6.495
G1 X -19.039 Y   6.478
G1 X -19.083 Y   6.462
G1 X -19.126 Y   6.445
G1 X -19.168 Y   6.428
G1 X -19.207 Y   6.410
G1 X -19.245 Y   6.392
G1 X -19.281 Y   6.374
G1 X -19.316 Y   6.356
G1 X -19.350 Y   6.338
G1 X -19.382 Y   6.320
G1 X -19.412 Y   6.302
G1 X -19.441 Y   6.284
G1 X -19.469 Y   6.265
G1 X -19.522 Y   6.230
G1 X -19.570 Y   6.194
G1 X -19.615 Y   6.160
G1 X -19.656 Y   6.127
G1 X -19.730 Y   6.067
G1 X -19.832 Y   5.981
G1 X -19.932 Y   5.891
G1 X -20.031 Y   5.799
G1 X -20.128 Y   5.703
G1 X -20.224 Y   5.605
G1 X -20.317 Y   5.505
G1 X -20.499 Y   5.300
G1 X -20.674 Y   5.092
G1 X -20.840 Y   4.883
G1 X -21.146 Y   4.477
G1 X -21.643 Y   3.797
G1 X -21.741 Y   3.673
G1 X -21.785 Y   3.620
G1 X -21.806 Y   3.596
G1 X -21.827 Y   3.574
G1 X -21.847 Y   3.553
G1 X -21.865 Y   3.534
G1 X -21.884 Y   3.517
G1 X -21.892 Y   3.510
G1 X -21.901 Y   3.502
G1 X -21.909 Y   3.496
G1 X -21.918 Y   3.489
G1 X -21.926 Y   3.483
G1 X -21.933 Y   3.478
G1 X -21.937 Y   3.476
G1 X -21.941 Y   3.473
G1 X -21.945 Y   3.471
G1 X -21.948 Y   3.469
G1 X -21.952 Y   3.467
G1 X -21.956 Y   3.465
G1 X -21.959 Y   3.463
G1 X -21.963 Y   3.462
G1 X -21.967 Y   3.460
G1 X -21.972 Y   3.458
G1 X -21.977 Y   3.456
G1 X -21.982 Y   3.454
G1 X -21.993 Y   3.451
G1 X -22.004 Y   3.448
G1 X -22.016 Y   3.444
G1 X -22.029 Y   3.441
G1 X -22.042 Y   3.439
G1 X -22.056 Y   3.436
G1 X -22.084 Y   3.431
G1 X -22.115 Y   3.427
G1 X -22.148 Y   3.423
G1 X -22.182 Y   3.421
G1 X -22.217 Y   3.418
G1 X -22.254 Y   3.417
G1 X -22.331 Y   3.415
G1 X -22.411 Y   3.416
G1 X -22.493 Y   3.420
G1 X -22.576 Y   3.425
G1 X -22.658 Y   3.433
G1 X -22.738 Y   3.443
G1 X -22.815 Y   3.454
G1 X -22.852 Y   3.461
G1 X -22.888 Y   3.468
G1 X -22.922 Y   3.476
G1 X -22.955 Y   3.484
G1 X -22.986 Y   3.492
G1 X -23.015 Y   3.501
G1 X -23.029 Y   3.506
G1 X -23.042 Y   3.511
G1 X -23.055 Y   3.516
G1 X -23.067 Y   3.521
G1 X -23.068 Y   3.521
G1 X -23.069 Y   3.522
G1 X -23.070 Y   3.522
G1 X -23.072 Y   3.523
G1 X -23.073 Y   3.524
G1 X -23.074 Y   3.524
G1 X -23.075 Y   3.525
G1 X -23.077 Y   3.526
G1 X -23.079 Y   3.527
G1 X -23.081 Y   3.529
G1 X -23.084 Y   3.531
G1 X -23.086 Y   3.532
G1 X -23.088 Y   3.534
G1 X -23.090 Y   3.536
G1 X -23.092 Y   3.538
G1 X -23.094 Y   3.540
G1 X -23.096 Y   3.542
G1 X -23.098 Y   3.545
G1 X -23.100 Y   3.547
G1 X -23.102 Y   3.549
G1 X -23.104 Y   3.552
G1 X -23.105 Y   3.554
G1 X -23.107 Y   3.557
G1 X -23.109 Y   3.559
G1 X -23.110 Y   3.562
G1 X -23.111 Y   3.565
G1 X -23.113 Y   3.567
G1 X -23.114 Y   3.570
G1 X -23.115 Y   3.573
G1 X -23.117 Y   3.576
G1 X -23.118 Y   3.579
G1 X -23.119 Y   3.582
G1 X -23.120 Y   3.585
G1 X -23.121 Y   3.589
G1 X -23.121 Y   3.592
G1 X -23.122 Y   3.595
G1 X -23.123 Y   3.598
G1 X -23.123 Y   3.602
G1 X -23.124 Y   3.605
G1 X -23.124 Y   3.609
G1 X -23.125 Y   3.612
G1 X -23.125 Y   3.616
G1 X -23.125 Y   3.619
G1 X -23.125 Y   3.623
G1 X -23.125 Y   3.626
G1 X -23.125 Y   3.630
G1 X -23.125 Y   3.634
G1 X -23.125 Y   3.637
G1 X -23.124 Y   3.641
G1 X -23.124 Y   3.645
G1 X -23.124 Y   3.649
G1 X -23.123 Y   3.652
G1 X -23.122 Y   3.656
G1 X -23.121 Y   3.660
G1 X -23.121 Y   3.664
G1 X -23.120 Y   3.668
G1 X -23.119 Y   3.672
G1 X -23.117 Y   3.676
G1 X -23.116 Y   3.679
G1 X -23.115 Y   3.683
G1 X -23.113 Y   3.687
G1 X -23.112 Y   3.691
G1 X -23.110 Y   3.695
G1 X -23.108 Y   3.699
G1 X -23.107 Y   3.703
G1 X -23.105 Y   3.707
G1 X -23.103 Y   3.711
G1 X -23.100 Y   3.715
G1 X -23.099 Y   3.717
G1 X -23.098 Y   3.719
G1 X -23.096 Y   3.721
G1 X -23.095 Y   3.724
G1 X -23.091 Y   3.729
G1 X -23.087 Y   3.734
G1 X -23.083 Y   3.740
G1 X -23.078 Y   3.746
G1 X -23.066 Y   3.760
G1 X -23.053 Y   3.775
G1 X -23.038 Y   3.791
G1 X -23.003 Y   3.828
G1 X -22.912 Y   3.918
G1 X -22.797 Y   4.028
G1 X -22.136 Y   4.630
G1 X -20.355 Y   6.261
G1 X -20.291 Y   6.319
G1 X -20.192 Y   6.405
G1 X -20.062 Y   6.512
G1 X -19.907 Y   6.631
G1 X -19.822 Y   6.693
G1 X -19.733 Y   6.755
G1 X -19.640 Y   6.817
G1 X -19.545 Y   6.876
G1 X -19.447 Y   6.933
G1 X -19.398 Y   6.960
G1 X -19.348 Y   6.987
G1 X -19.299 Y   7.011
G1 X -19.249 Y   7.035
G1 X -19.199 Y   7.057
G1 X -19.149 Y   7.078
G1 X -19.127 Y   7.087
G1 X -19.103 Y   7.095
G1 X -19.053 Y   7.112
G1 X -19.001 Y   7.129
G1 X -18.947 Y   7.145
G1 X -18.837 Y   7.174
G1 X -18.731 Y   7.200
G1 X -18.473 Y   7.254
G1 X -17.742 Y   7.409
G1 X -16.998 Y   7.545
G1 X -16.248 Y   7.664
G1 X -15.499 Y   7.766
G1 X -14.030 Y   7.925
G1 X -12.646 Y   8.033
G1 X -11.400 Y   8.100
G1 X -10.347 Y   8.135
G1 X  -9.036 Y   8.150
G1 X  -8.960 Y   8.150
G1 X  -9.188 Y   6.752
G1 Z   3.000
G0 Z  15.000 
M9 M5
G0 X   0.000 Y   0.000
M2 (Program end)